X: 41948
T: Walking Ower Da River
R: reel
M: 4/4
K: Amixolydian
af|:[e2A2]cA Bc {c}d2|e2cA eA[AE}f|eAcA Bcdc|1 ecaB {AB}A2af:|2 ecaB A2A2||
efga B=cdg|e=cgc ecgc|e=cgc Bcdg|e=caB {ef}e2ed|
efga B=cdg|edef gage|ded=c Bcdf|ecaB {AB}A2af|

